Adwaita++/apps/scalable/aiuto.svg

<svg enable-background="new" height="128" viewBox="0 0 128 128" width="128" xmlns="http://www.w3.org/2000/svg" xmlns:xlink="http://www.w3.org/1999/xlink">
  <linearGradient id="linearGradient882">
    <stop offset="0" stop-color="#fff"/>
    <stop offset="1" stop-color="#fff" stop-opacity=".280335"/>
  </linearGradient>
  <clipPath id="clipPath1015">
    <path d="m64 176a60 60 0 0 0 -60 60 60 60 0 0 0 60 60 60 60 0 0 0 60-60 60 60 0 0 0 -60-60zm0 26a34 34 0 0 1 34 34 34 34 0 0 1 -34 34 34 34 0 0 1 -34-34 34 34 0 0 1 34-34z"/>
  </clipPath>
  <linearGradient id="linearGradient884" gradientUnits="userSpaceOnUse" x1="63.99999736" x2="63.99999736" xlink:href="#linearGradient882" y1="188.0000076" y2="316.0000148"/>
  <linearGradient id="linearGradient892" gradientUnits="userSpaceOnUse" x1="-80" x2="-80" xlink:href="#linearGradient882" y1="-274.09021" y2="-244"/>
  <filter id="filter1031" color-interpolation-filters="sRGB" height="1.24" width="1.24" x="-.12" y="-.12">
    <feGaussianBlur stdDeviation="4.2"/>
  </filter>
  <filter id="filter1047" color-interpolation-filters="sRGB" height="1.192" width="1.192" x="-.096" y="-.096">
    <feGaussianBlur stdDeviation="4.16"/>
  </filter>
  <g transform="translate(0 -172)">
    <use height="100%" stroke-width=".95652" transform="matrix(-1 0 0 1 128.00252 0)" width="100%" xlink:href="#path1082"/>
    <use height="100%" stroke-width=".95652" transform="matrix(-1 0 0 -1 128.00254 472.01154)" width="100%" xlink:href="#path1082"/>
    <use height="100%" stroke-width=".95652" transform="matrix(1 0 0 -1 -.000005 472.01152)" width="100%" xlink:href="#path1082"/>
    <path id="path1082" d="m16.641596 237.3929a34.500065 34.500065 0 0 1 .26206-46.9655 34.500065 34.500065 0 0 1 46.858115-3.18498" fill="none" stroke="#ddc6b3" stroke-width="4"/>
    <g clip-path="url(#clipPath1015)">
      <path d="m0 172h128v128h-128z" fill="#f6f5f4"/>
      <path d="m48.001953 4.0058594v43.9941406h-43.9999999v32.011719h43.9999999v43.994141h31.998047v-43.994141h44.00195v-32.011719h-44.00195v-43.9941406z" fill="#e01b24" transform="translate(0 172)"/>
      <path d="m0 168v128h128v-128zm64 4a60 60 0 0 1 60 60 60 60 0 0 1 -60 60 60 60 0 0 1 -60-60 60 60 0 0 1 60-60zm0 26a34 34 0 0 0 -34 34 34 34 0 0 0 34 34 34 34 0 0 0 34-34 34 34 0 0 0 -34-34z" opacity=".15"/>
      <g fill="none" stroke-width="4">
        <circle cx="64.420197" cy="235.08684" filter="url(#filter1047)" r="52" stroke="url(#linearGradient884)"/>
        <circle cx="-64.420181" cy="-235.08685" filter="url(#filter1031)" r="42" stroke="url(#linearGradient892)" transform="matrix(-1 0 0 -1 0 2)"/>
      </g>
    </g>
  </g>
</svg>

<?xml version="1.0" encoding="UTF-8" standalone="no"?>
<!-- Created with Inkscape (http://www.inkscape.org/) -->
<svg xmlns:dc="http://purl.org/dc/elements/1.1/" xmlns:cc="http://creativecommons.org/ns#" xmlns:rdf="http://www.w3.org/1999/02/22-rdf-syntax-ns#" xmlns:svg="http://www.w3.org/2000/svg" xmlns="http://www.w3.org/2000/svg" xmlns:xlink="http://www.w3.org/1999/xlink" xmlns:sodipodi="http://sodipodi.sourceforge.net/DTD/sodipodi-0.dtd" xmlns:inkscape="http://www.inkscape.org/namespaces/inkscape" width="128" height="128" id="svg11300" version="1.0" style="display:inline;enable-background:new" viewBox="0 0 128 128">
  <title id="title4162">Adwaita Icon Template</title>
  <defs id="defs3">
    <linearGradient id="linearGradient882">
      <stop style="stop-color:#ffffff;stop-opacity:1;" offset="0" id="stop878"/>
      <stop style="stop-color:#ffffff;stop-opacity:0.28033474" offset="1" id="stop880"/>
    </linearGradient>
    <clipPath clipPathUnits="userSpaceOnUse" id="clipPath1015">
      <path style="display:inline;opacity:1;fill:none;fill-opacity:1;stroke:#000000;stroke-width:2;stroke-linecap:butt;stroke-linejoin:miter;stroke-miterlimit:4;stroke-dasharray:none;stroke-dashoffset:0;stroke-opacity:1;marker:none;marker-start:none;marker-mid:none;marker-end:none;paint-order:normal;enable-background:new" d="m 64,176 a 60,60 0 0 0 -60,60 60,60 0 0 0 60,60 60,60 0 0 0 60,-60 60,60 0 0 0 -60,-60 z m 0,26 a 34,34 0 0 1 34,34 34,34 0 0 1 -34,34 34,34 0 0 1 -34,-34 34,34 0 0 1 34,-34 z" id="path1017"/>
    </clipPath>
    <linearGradient xlink:href="#linearGradient882" id="linearGradient884" x1="64.016159" y1="189.81104" x2="64.016159" y2="312.88797" gradientUnits="userSpaceOnUse" gradientTransform="matrix(1.04,0,0,1.04,-2.5768079,-9.403474)"/>
    <linearGradient xlink:href="#linearGradient882" id="linearGradient892" x1="-80" y1="-274.09021" x2="-80" y2="-244" gradientUnits="userSpaceOnUse"/>
    <filter style="color-interpolation-filters:sRGB" id="filter1031" x="-0.12" width="1.24" y="-0.12" height="1.24">
      <feGaussianBlur stdDeviation="4.2" id="feGaussianBlur1033"/>
    </filter>
    <filter style="color-interpolation-filters:sRGB" id="filter1047" x="-0.096" width="1.192" y="-0.096" height="1.192">
      <feGaussianBlur stdDeviation="4.16" id="feGaussianBlur1049"/>
    </filter>
  </defs>
  
  <metadata id="metadata4">
    
  </metadata>
  <g id="layer1" style="display:inline" transform="translate(0,-172)">
    <g id="layer2" style="display:none">
      <text xml:space="preserve" style="font-style:normal;font-variant:normal;font-weight:normal;font-stretch:normal;font-size:5.33333349px;line-height:125%;font-family:Cantarell;-inkscape-font-specification:'Cantarell, Normal';text-align:start;writing-mode:lr-tb;text-anchor:start;display:inline;fill:#000000;fill-opacity:1;stroke:none;stroke-width:0.33264872;enable-background:new" x="7.9499588" y="148.65199" id="context"><tspan id="tspan2716" x="7.9499588" y="148.65199" style="font-size:5.33333349px;stroke-width:0.33264872">apps</tspan></text>
      <text id="text3021" y="157.23398" x="7.7533054" style="font-style:normal;font-variant:normal;font-weight:bold;font-stretch:normal;font-size:5.33333349px;line-height:125%;font-family:Cantarell;-inkscape-font-specification:'Cantarell, Bold';text-align:start;writing-mode:lr-tb;text-anchor:start;display:inline;fill:#000000;fill-opacity:1;stroke:none;stroke-width:0.33264872;enable-background:new" xml:space="preserve"><tspan y="157.23398" x="7.7533054" id="tspan3023" style="font-size:5.33333349px;stroke-width:0.33264872">org.gnome.Help</tspan></text>
      <g style="display:inline;fill:#000000;enable-background:new" transform="matrix(7.9911709,0,0,8.0036407,-167.7909,-4846.0776)" id="g12027"/>
      <rect style="display:inline;overflow:visible;visibility:visible;fill:#f0f0f0;fill-opacity:1;fill-rule:nonzero;stroke:none;stroke-width:0.5;marker:none;enable-background:accumulate" id="rect13805" width="128" height="128" x="9.2651362e-08" y="172"/>
      <g id="g883" style="fill:none;fill-opacity:0.25098039;stroke:#a579b3;stroke-opacity:1" transform="translate(-24,24)"/>
      <g id="g900" style="fill:none;fill-opacity:0.25098039;stroke:#a579b3;stroke-opacity:1" transform="translate(-24,24)"/>
      <g id="g1168" transform="matrix(0.25,0,0,0.25,6.9488522e-8,225)">
        <circle cx="256" cy="44" r="240" id="path1142" style="opacity:0.1;fill:#2864b0;fill-opacity:1;stroke:none;stroke-width:1;stroke-linecap:butt;stroke-linejoin:miter;stroke-miterlimit:4;stroke-dasharray:none;stroke-dashoffset:0;stroke-opacity:1;marker:none;marker-start:none;marker-mid:none;marker-end:none;paint-order:normal"/>
        <rect ry="32" rx="32" y="-180" x="96" height="448" width="319.99979" id="rect1110" style="opacity:0.1;fill:#2864b0;fill-opacity:1;stroke:none;stroke-width:1;stroke-linecap:butt;stroke-linejoin:miter;stroke-miterlimit:4;stroke-dasharray:none;stroke-dashoffset:0;stroke-opacity:1;marker:none;marker-start:none;marker-mid:none;marker-end:none;paint-order:normal"/>
        <rect ry="32" rx="32" y="-164" x="48" height="416" width="416" id="rect1110-8" style="display:inline;opacity:0.1;fill:#2864b0;fill-opacity:1;stroke:none;stroke-width:1;stroke-linecap:butt;stroke-linejoin:miter;stroke-miterlimit:4;stroke-dasharray:none;stroke-dashoffset:0;stroke-opacity:1;marker:none;marker-start:none;marker-mid:none;marker-end:none;paint-order:normal;enable-background:new"/>
        <rect ry="32" rx="32" y="-116" x="32" height="320" width="448" id="rect1110-8-9" style="display:inline;opacity:0.1;fill:#2864b0;fill-opacity:1;stroke:none;stroke-width:1;stroke-linecap:butt;stroke-linejoin:miter;stroke-miterlimit:4;stroke-dasharray:none;stroke-dashoffset:0;stroke-opacity:1;marker:none;marker-start:none;marker-mid:none;marker-end:none;paint-order:normal;enable-background:new"/>
      </g>
    </g>
    <g id="layer9" style="display:inline">
      <use style="display:inline;stroke-width:0.95651996;enable-background:new" x="0" y="0" xlink:href="#path1082" id="use1199" transform="matrix(-1,0,0,1,128.00252,-2.7346626e-8)" width="100%" height="100%"/>
      <use style="display:inline;stroke-width:0.95651996;enable-background:new" x="0" y="0" xlink:href="#path1082" id="use1199-0" transform="rotate(-180,64.00127,236.00577)" width="100%" height="100%"/>
      <use style="display:inline;stroke-width:0.95651996;enable-background:new" x="0" y="0" xlink:href="#path1082" id="use1201" transform="matrix(1,0,0,-1,-5.2272824e-6,472.01152)" width="100%" height="100%"/>
      <path id="path1082" style="display:inline;opacity:1;vector-effect:none;fill:none;fill-opacity:1;stroke:#ddc6b3;stroke-width:4;stroke-linecap:butt;stroke-linejoin:miter;stroke-miterlimit:4;stroke-dasharray:none;stroke-dashoffset:0;stroke-opacity:1;marker:none;marker-start:none;marker-mid:none;marker-end:none;paint-order:normal;enable-background:new" d="m 16.641596,237.3929 a 34.500065,34.500065 0 0 1 0.26206,-46.9655 34.500065,34.500065 0 0 1 46.858115,-3.18498"/>
      <g id="g1013" clip-path="url(#clipPath1015)">
        <rect y="172" x="9.2651362e-08" height="128" width="128" id="rect13805-5" style="display:inline;overflow:visible;visibility:visible;fill:#f6f5f4;fill-opacity:1;fill-rule:nonzero;stroke:none;stroke-width:0.5;marker:none;enable-background:accumulate"/>
        <path id="rect913-3" d="M 48.001953,4.0058594 V 48 H 4.0019531 V 80.011719 H 48.001953 V 124.00586 H 80 V 80.011719 h 44.00195 V 48 H 80 V 4.0058594 Z" style="display:inline;opacity:1;vector-effect:none;fill:#e01b24;fill-opacity:1;stroke:none;stroke-width:4;stroke-linecap:butt;stroke-linejoin:miter;stroke-miterlimit:4;stroke-dasharray:none;stroke-dashoffset:0;stroke-opacity:1;marker:none;marker-start:none;marker-mid:none;marker-end:none;paint-order:normal;enable-background:new" transform="translate(0,172)"/>
        <path style="display:inline;overflow:visible;visibility:visible;opacity:0.15;fill:#000000;fill-opacity:1;fill-rule:nonzero;stroke:none;stroke-width:2;stroke-miterlimit:4;stroke-dasharray:none;marker:none;enable-background:accumulate" d="M 0,168 V 296 H 128 V 168 Z m 64,4 a 60,60 0 0 1 60,60 60,60 0 0 1 -60,60 60,60 0 0 1 -60,-60 60,60 0 0 1 60,-60 z m 0,26 a 34,34 0 0 0 -34,34 34,34 0 0 0 34,34 34,34 0 0 0 34,-34 34,34 0 0 0 -34,-34 z" id="rect13805-5-6"/>
        <circle id="circle864" style="display:inline;opacity:1;vector-effect:none;fill:none;fill-opacity:1;stroke:url(#linearGradient884);stroke-width:3.99999952;stroke-linecap:butt;stroke-linejoin:miter;stroke-miterlimit:4;stroke-dasharray:none;stroke-dashoffset:0;stroke-opacity:1;marker:none;marker-start:none;marker-mid:none;marker-end:none;paint-order:normal;enable-background:new;filter:url(#filter1047)" cx="64.420197" cy="235.08684" r="52"/>
        <circle transform="rotate(180,0,1)" style="display:inline;opacity:1;vector-effect:none;fill:none;fill-opacity:1;stroke:url(#linearGradient892);stroke-width:4;stroke-linecap:butt;stroke-linejoin:miter;stroke-miterlimit:4;stroke-dasharray:none;stroke-dashoffset:0;stroke-opacity:1;marker:none;marker-start:none;marker-mid:none;marker-end:none;paint-order:normal;filter:url(#filter1031);enable-background:new" id="path866" cx="-64.420181" cy="-235.08685" r="42"/>
      </g>
    </g>
  </g>
</svg>
